!!!OTL@@FUR: Olin Bevi
!!!OTL@IT: Vogliamo bere
!!!OTL@EN: Let's drink
**kern
*clefG2
*k[]
*C:
*M3/4
*MM110
*>[A,B,C,B,D]
*>A
4e
4f
=1!|:
*>B
4a
[2g
=2
4g]
4e
4f
=3
4a
[2g
=4
4g]
4ee
4dd
=5
2cc
4b
=6
2a
4g
=7
4g
[2f
=8
4f]
4d
4e
=9
4g
[2f
=10
4f]
4d
4e
=11
4g
[2f
=12
4f]
4dd
4cc
=13
4b
4cc
4b
=12||
*>C
4a
4g
4f
=13
[2.e
=14
4e]
4e
4f
=15:|!
*>D
4a
4g
4b
=16
2.cc
==
*-
!!!ARE: Friuli
!!!ENC: Kelly Leistikow
!!!END: 2002/03/07
!!!ref: @{OTL@@FUR}/@{OTL@EN}
